X: 841
T: A Merry Christmas
N:"Collected by J.O'Neill"
B:O'Neill's 841
Z:Transcribed by Dan G. Petersen, dangp@post6.tele.dk
M:6/8
L:1/8
K:G
D|GAB AGE|ceg dBG|GAB AGE|{G}FDD DEF|
GAB AGE|ceg dBG|EFG (A<d)c|BGG G2:|
B|d^ce def|gfe dBG|Bcd efg|(g<b)g afd|
(g/a/b).a gfe|dBg dBG|EFG (A<d)c|BGG G2:|


